!!!!SEGMENT: pl-wumfc--n47524--001-004_karlowicz-mieczyslaw--szesc-piesni-op-6-no-4-zawod.krn
!!!cenid: 18xx:4246
!!!COM: Karłowicz, Mieczysław
!!!COM-rismID: pe30108288
!!!CDT: 1876/12/11-1909/02/08
!!!CNT: Polish
!!!GTL: Sześć pieśni op. 6
!!!OTL: No. 4 Zawód
!!!OMV: 004
!!!PDT: 1897
!!!AGN:
!!!SMS-siglum: PL-Wumfc
!!!SMS-shelfmark: N47524
!!!SMS-shelfwork: 001-004 G
!!!SMS-variant:
!!!SMS-altvar:
!!!NIFC-rismSourceID: 1001177915
!!!NIFC-rismChildID: 1001177915
!!!NIFC-islandoraID: pl-wumfc:8021
!!!URL-pdf-islandora: https://repozytorium.nifc.pl/islandora/object/pl-wumfc:8021/datastream/PDF/view
!!!URL-scan: https://polish.musicsources.pl/pl/lokalizacje/galeria/druki-muzyczne/12515/5 @EN{Scan on Polish Music Sources Website} @PL{Skany w portalu Dziedzictwo Muzyki Polskiej w otwartym dostępie}
!!!IIIF:
!!!ONB-nifc: Skan 0005
!!!AIN: 2 piano 1 vox
!!!key: f#
**kern	**kern	**dynam	**kern	**text	**dynam
*part3	*part2	*part2	*part1	*part1	*part1
*staff3	*staff2	*	*staff1	*staff1	*
*I"[Piano]	*I"[Piano]	*	*I"[Voce]	*	*
*I'pf	*I'pf	*	*I'V	*	*
*ICklav	*ICklav	*	*ICvox	*	*
*Ipiano	*Ipiano	*	*Ivox	*	*
*clefF4	*clefG2	*	*clefG2	*	*
*k[f#c#g#]	*k[f#c#g#]	*	*k[f#c#g#]	*	*
*f#:	*f#:	*	*f#:	*	*
*M4/4	*M4/4	*	*M4/4	*	*
*met(c)	*met(c)	*	*met(c)	*	*
=1	=1	=1	=1	=1	=1
*^	*^	*	*	*	*
*Xbrackettup	*	*Xbrackettup	*	*	*	*	*
!LO:TUP:a:problem:klamra łukowa	!	!LO:TUP:a:problem:klamra łukowa	!	!	!LO:TX:a:B:t=Moderato M.M. [quarter] = 76.	!	!
6A#X/	2D\	6a#X/	2d\ 2f#	f	1r	.	.
6B/	.	6b/	.	.	.	.	.
6c#/	.	6cc#/	.	.	.	.	.
2GG#/ 2G#	2ryy	4e/ 4ee	2f#\ 2b	.	.	.	.
.	.	4d/ 4dd	.	.	.	.	.
*v	*v	*	*	*	*	*	*
=2	=2	=2	=2	=2	=2	=2
2AA\ 2A	4c#/ 4f#/ 4cc#	4ryy	.	1r	.	.
.	2f#/ 2ff#	(>4cc#\	.	.	.	.
2BB\ 2F# 2G#	.	2dd\)	.	.	.	.
.	[4f#/	.	.	.	.	.
=3	=3	=3	=3	=3	=3	=3
*^	*	*	*	*	*	*
!LO:TUP:a:problem:klamra łukowa	!	!LO:TUP:a:problem:klamra łukowa	!	!	!	!	!
6F#/ 6A	2C#\	6f#/] 6a	2c#\	.	1r	.	.
6B/	.	6g#/	.	.	.	.	.
6A/	.	6f#/	.	.	.	.	.
!	!	!	!LO:TX:b:t=dim._:dur=2q2h:ext=ud:problem:text with extention lines	!	!	!	!
4G#/	2F#\	4e#X/	2B#X\	>	.	.	.
4F#/	.	4f#/	.	.	.	.	.
=4	=4	=4	=4	=4	=4	=4	=4
4Bn/	2C#\	1c# 1cc#	2f#\	.	1r	.	.
2G#/	.	.	.	.	.	.	.
.	2C#\	.	2e#X\	.	.	.	.
[4c#/	.	.	.	]]	.	.	.
*	*	*v	*v	*	*	*	*
!!LO:LB:g=original	!	!	!	!	!	!
=5	=5	=5	=5	=5	=5	=5
*	*	*	*	*Xbrackettup	*	*
!	!	!	!	!LO:TUP:a:problem:klamra łukowa	!	!
2c#/]	1F#	2f#/ 2a	p	6a/	Wy-	.
.	.	.	.	6f#/	-ko-	.
.	.	.	.	6g#/	-ły-	.
2A/	.	2c#/ 2f#	.	4a/	-sa-	.
.	.	.	.	4cc#\	-łem	.
=6	=6	=6	=6	=6	=6	=6
2B/	2.F#\	2d/ 2e#X 2g#	<	4g#/	cię	.
!	!	!	!	!	!	!LO:HP:a
.	.	.	.	(<8f#/L	wśród	<
.	.	.	.	8g#/J)	.	.
2A/	.	2c#/ 2f# 2a	.	4a/	fal	.
.	4En\	.	.	8r	.	.
.	.	.	[[	8a/	Mych	[[
=7	=7	=7	=7	=7	=7	=7
*	*	*^	*	*	*	*
2.A/	2D\	2c#/ 2f# 2cc#	2ryy	.	4cc#\	snów,	.
.	.	.	.	.	8r	.	.
.	.	.	.	.	8cc#\	jak	.
.	2D\	2B/ 2b	4f#\	.	8b\	lim-	.
.	.	.	.	.	8b\	-bę	.
[4A/	.	.	[>4e#X\	.	8a/	gdzieś	.
.	.	.	.	.	8b\	nad-	.
=8	=8	=8	=8	=8	=8	=8	=8
!	!	!	!LO:TX:b:t=cresc._:dur=hq:ext=ud:problem:text with extention lines	!	!	!	!
4A/]	2C#\	(2.e#X/] 2.a	1c#	<	2cc#\	-wod-	.
2.E#X/	.	.	.	.	.	.	.
.	2BB\	.	.	.	4cc#\	-ną.	.
.	.	4g#/	.	[[	4r	.	.
!!LO:LB:g=original	!	!	!	!	!	!	!
=9	=9	=9	=9	=9	=9	=9	=9
!	!	!LO:TUP:a:problem:klamra łukowa	!	!	!LO:TUP:a:problem:klamra łukowa	!	!LO:DY:a
2.F#/	2AA\	3f#/)	2c#\	mf	6ff#\	Śni-	f
.	.	.	.	.	6ff#\	-łem	.
.	.	6cc#/	.	.	6cc#\	cię	.
.	2BB\	2d/ 2f# 2dd	2ryy	.	4dd\	ci-	.
4G#/	.	.	.	.	4dd\	-chą	.
=10	=10	=10	=10	=10	=10	=10	=10
!	!	!	!	!LO:HP:t=dim.	!	!	!LO:HP:a:t=dim.
1A	2C#\	2e#X/ 2a 2cc#	1c#	>	4.cc#\	i	>
.	.	.	.	.	8cc#\	po-	.
.	2D\	2f#/ 2a	.	.	4a/	-god-	.
.	.	.	.	.	4a/	-ną	.
=11	=11	=11	=11	=11	=11	=11	=11
!	!	!LO:TUP:a:problem:klamra łukowa	!	!	!LO:TUP:a:problem:klamra łukowa	!	!LO:DY:a
2.G#/	2D#X\	3g#/	2B#X\ 2f#	pp	6g#/	Ah!	p
.	.	.	.	.	6g#/	Jak	.
.	.	6bn/	.	.	6b\	mi	.
.	2GG#\	4a/	2ryy	.	4a/	żal,	.
[4G#/	.	(4f#\ 4b#X 4ff#	.	.	(8f#/L	jak	.
.	.	.	.	.	8a/J)	.	.
*	*	*v	*v	*	*	*	*
=12	=12	=12	=12	=12	=12	=12
4G#/]	2C#\	2.e#X/) 2.cc# 2.ee#X	<	2.g#/	żal...	p
2c#/	.	.	.	.	.	.
.	(4C#\	.	.	.	.	.
4r	4BB\	4r	[[	4r	.	.
!!LO:LB:g=original	!	!	!	!	!	!
=13	=13	=13	=13	=13	=13	=13
*	*	*^	*	*	*	*
!	!	!LO:TUP:a:problem:klamra łukowa	!	!	!LO:TUP:a:problem:klamra łukowa	!	!LO:DY:a
4r	1AA)	(6en/	2c#\	p	6e/	Na	mf
.	.	6f#/	.	.	6f#/	zie-	.
(4E/	.	.	.	.	.	.	.
.	.	6g#/	.	.	6g#/	-lo-	.
4A/	.	4f#/	2c#\	.	4f#/	-noś-	.
4E/)	.	4e/)	.	.	4e/	-ci	.
=14	=14	=14	=14	=14	=14	=14	=14
4r	1AA	(4f#/	2d\	.	4f#/	sen-	.
(4E/	.	4b/	.	.	4b\	-nych	.
4G#/	.	2f#/)	2d\	.	2f#/	hal,	.
4E/)	.	.	.	.	.	.	.
=15	=15	=15	=15	=15	=15	=15	=15
*	*	*	*^	*	*	*	*
!	!	!LO:TUP:a:problem:klamra łukowa	!	!	!	!LO:TUP:a:problem:klamra łukowa	!	!
4r	1AA	6f#/	2d\	(1dd	.	6f#/	Gdzie	.
.	.	6g#/	.	.	.	6g#/	wiatr	.
(4E/	.	.	.	.	.	.	.	.
.	.	6a/	.	.	.	6a/	błę-	.
4B/	.	4g#/	2d\	.	.	4g#/	-kit-	.
4E/)	.	4f#/)	.	.	.	4f#/	-ne	.
=16	=16	=16	=16	=16	=16	=16	=16	=16
4r	1AA	(4f#/	2c#\	1cc#	.	4f#/	mgły	.
(4E/	.	4a/	.	.	.	4a/	roz-	.
4A/	.	2e/)	2c#\	.	.	8e/	-pi-	.
.	.	.	.	.	.	8e/	-na,	.
4E/)	.	.	.	.	.	4r	.	.
*v	*v	*	*	*	*	*	*	*
*	*v	*v	*v	*	*	*	*
!!LO:PB:g=original	!	!	!	!	!
=17	=17	=17	=17	=17	=17
!	!	!	!LO:TUP:a:problem:klamra łukowa	!	!
!	!LO:TX:b:i:t=animato	!	!LO:TX:a:i:t=animato	!	!
!	!LO:TUP:a:problem:klamra łukowa	!	!LO:TX:a:B:t=Più mosso.	!	!
6FF#/ 6F#	6c#/ 6e 6a	mf	6a/	By-	.
6F#\ 6c# 6e	6a/ 6b#X	.	6a/	-łaś	.
6F#\ 6c# 6e	6a\ 6cc#	.	6a/	mi,	.
!	!LO:TUP:a:problem:klamra łukowa	!	!LO:TUP:a:problem:klamra łukowa	!	!
6F#\ 6c# 6e	6a\ 6ee	.	3ee\	dziew-	.
!	!LO:TX:b:t=cresc._:dur=8q:ext=ud:problem:text with extention lines	!	!	!	!
6F#\ 6c# 6e	6a\ 6ee 6ff#	<	.	.	.
!	!	!	!LO:TX:a:t=cresc._:dur=3q2h:ext=ud:problem:text with extention lines	!	!
6F#\ 6c# 6e	6a\ 6ee 6gg#	.	6ee\	-czę,	<
=18	=18	=18	=18	=18	=18
*Xtuplet	*Xtuplet	*	*Xtuplet	*	*
6BBB/ 6BB	6a\ 6ee 6aa	.	3ee\	tak	.
6F#\ 6A 6e	6a\ 6ee 6aa	.	.	.	.
6F#\ 6A 6d#X	6b\ 6dd#X 6bb	.	6dd#X\	je-	.
6F#\ 6A 6c#	6cc#\ 6ccc#	.	3cc#^\	-dy-	.
6F#\ 6A 6c#	6cc#\ 6aa 6ccc#	.	.	.	.
6F#\ 6A 6cn	6dd#\ 6cccn 6ddd#X	[[	6ccn\	-na	[[
=19	=19	=19	=19	=19	=19
!	!	!	!	!	!LO:DY:a
6GGG#/ 6GG#	6ee\ 6bb 6eee	f	6b\	Ah!	f
6G#\ 6B 6e	6b\ 6ee	.	6b\	Jak	.
6G#\ 6B 6e	6b\ 6ee 6gg#	.	6b\	mi	.
6GG#/	6b#X\ 6ee 6bb#X	.	3a/	żal,	.
6G#\ 6B 6e#X	6b#\ 6ee	.	.	.	.
6G#\ 6B 6e#	6b#\ 6ee 6gg#	.	6g#/	jak	.
=20	=20	=20	=20	=20	=20
6AA/	6cc#\ 6ee 6ff#	>	3f#/	żal...	.
6A\ 6c# 6e	6cc#\ 6ee	.	.	.	.
6A\ 6c# 6e	6a\ 6cc#	.	6r	.	.
6A\ 6c# 6e	6f#/ 6a	.	2r	.	.
6A\ 6c#	6e/ 6f#	.	.	.	.
6A\	6c#/ 6e	]]	.	.	.
!!LO:LB:g=original	!	!	!	!	!
=21	=21	=21	=21	=21	=21
6AA/	6cn/ 6e 6f#	mf	6f#/	By-	mf
6A\ 6cn	6e/ 6f# 6a	.	6f#/	-łaś	.
6A\ 6c	6e/ 6f# 6a 6ccn	.	6f#/	mi,	.
6A\ 6B	6d#X/ 6g# 6b	.	3g#/	dziew-	.
6A\ 6B	6d#/ 6g# 6b	.	.	.	.
!	!LO:TX:b:t=cresc._:dur=7q:ext=ud:problem:text with extention lines	!	!	!	!
6A\ 6B	6d#/ 6f# 6b 6dd#X	<	6f#/	-czę	.
=22	=22	=22	=22	=22	=22
!	!	!	!	!	!LO:HP:a:t=molto cresc.
6GG#/	6e/ 6b 6ee	.	3b\	tak	<
6G#\ 6B	6e/ 6b	.	.	.	.
6G#\ 6B	6e/ 6b 6ee	.	6b\	je-	.
6G#\ 6B#X 6e	6g#\ 6b#X 6ee 6gg#	.	3b#X\	-dy-	.
6G#\ 6B# 6e	6g#\ 6b# 6ee	.	.	.	.
6G#\ 6B# 6e	6g#\ 6b# 6ee 6gg#	[[	6b#\	-na	.
=23	=23	=23	=23	=23	=23
!	!	!	!LO:TX:a:i:t=appassionato	!	!LO:DY:a
6GG#/	6g#\ 6b#X 6dd#X	.	6b#X\	Ah!	ff
6G#\ 6d#X 6f#	6g#\ 6b# 6gg#	.	6b#\	Jak	.
6G#\ 6d# 6f#	6b#\ 6dd# 6bb#X	.	6b#\	mi	.
6GGG#/ 6GG#	6ee\ 6ff# 6bb# 6eee	ff	3a#X/	żal,	.
6G#\ 6A#X 6f#	6ee\ 6ff# 6bb# 6eee	.	.	.	.
6G#\ 6B#X 6f#	6dd#\ 6ff# 6bb# 6ddd#X	.	6b#\	jak	.
=24	=24	=24	=24	=24	=24
*^	*	*	*	*	*
4CC#/ 4C#	4ryy	8cc#\ 8ccc#	.	2cc#\	żal...	.
!	!	!LO:TX:b:i:t=ritard.	!LO:HP:t=dim.	!	!	!
.	.	(4ee#X\ 4gg#	>	.	.	.
*clefG2	*	*	*	*	*	*
(4g#/ 4bn	2.c#\	.	.	.	.	.
.	.	4ee#\ 4gg#	.	.	.	.
4f#/ 4a	.	.	.	2r	.	.
.	.	4ff#\ 4aa	.	.	.	.
4e#X/) 4g#	.	.	.	.	.	.
.	.	8gg#\) 8bb	.	.	.	.
*clefF4	*	*	*	*	*	*
!!LO:LB:g=original	!	!	!	!	!	!
=25	=25	=25	=25	=25	=25	=25
!	!	!	!	!LO:TX:a:B:t=Tempo I.	!	!LO:DY:a
4r	1FF#	(8ff#\L 8ccc#	p	4a/	W ko-	mf
.	.	8cc#\ 8aa	.	.	.	.
(4C#/	.	8ff#\ 8ccc#	.	8f#/	-ło	.
.	.	8cc#\J 8aa	.	8g#/	szu-	.
4F#/	.	8cc#\L 8aa	.	4a/	-mia-	.
.	.	8a\ 8ff#	.	.	.	.
4C#/)	.	8cc#\ 8aa	.	4cc#\	-ły	.
.	.	8a\J) 8ff#	.	.	.	.
=26	=26	=26	=26	=26	=26	=26
!	!	!	!	!	!	!LO:HP:a
4r	2.FF#\	(8dd\L 8gg#	<	4g#/	smre-	<
.	.	8b\ 8ee#X	.	.	.	.
(4E#X/	.	8dd\ 8gg#	.	(8f#/L	-ki	.
.	.	8b\J 8ee#	.	8g#/J)	.	.
4F#/)	.	8cc#\L 8aa	.	4a/	w dal	.
.	.	8a\ 8ff#	.	.	.	.
*	*	*	*	*tuplet	*	*
!	!	!	!	!LO:TUP:a:problem:klamra łukowa	!	!
4En/	4EE\	8cc#\ 8aa	.	12a/	Ja-	[
.	.	.	.	12a/	-kiem.ś	.
.	.	8a\J) 8ff#	.	.	.	.
.	.	.	[[	12a/	mod-	.
=27	=27	=27	=27	=27	=27	=27
*	*^	*	*	*	*	*
4r	2.D\	4DD\	(8ff#\L 8ccc#	.	4cc#\	-le-	.
.	.	.	8cc#\ 8aa	.	.	.	.
(4c#/	.	4ryy	8ff#\ 8ccc#	.	4cc#\	-niem	.
.	.	.	8cc#\J 8aa	.	.	.	.
2B/)	.	2ryy	8ff#\L 8bb	.	4b\	ci-	.
.	.	.	8b\ 8aa	.	.	.	.
.	4D\	.	8ee#X\ 8bb	.	(8a/L	-chem	.
.	.	.	8b\J) 8aa	.	8b/J)	.	.
=28	=28	=28	=28	=28	=28	=28	=28
(2.A/	2C#\	4r	(8ee#X\L 8ccc#	<	2cc#\	wiecz-	.
.	.	.	8cc#\ 8aa	.	.	.	.
.	.	2.E#X/	8ee#\ 8ccc#	.	.	.	.
.	.	.	8cc#\J 8aa	.	.	.	.
.	2BB\	.	8ee#\L 8ccc#	.	4cc#\	-nem	.
.	.	.	8cc#\ 8aa	.	.	.	.
4G#/)	.	.	8ee#\ 8ccc#	.	4r	.	.
.	.	.	8cc#\J) 8gg#	.	.	.	.
*	*v	*v	*	*	*	*	*
!!LO:LB:g=original	!	!	!	!	!	!
=29	=29	=29	=29	=29	=29	=29
!	!	!	!	!	!	!LO:DY:a
4F#/	2AA\	(8ff#\L 8ccc#	mf	4ff#\	By-	f
.	.	8cc#\ 8aa	.	.	.	.
(4c#/	.	8cc#\ 8aa	.	8ff#\	-łaś	.
.	.	8f#\J 8cc#	.	8cc#\	mi	.
4B/)	2BB\	8ff#\L 8ddd	.	4dd\	tam	.
.	.	8dd\ 8bb	.	.	.	.
[4F#/	.	8dd\ 8bb	.	4dd\	czemś	.
.	.	8f#\J) 8dd	.	.	.	.
=30	=30	=30	=30	=30	=30	=30
!	!	!LO:TX:b:i:t=poco a poco rit.	!LO:HP:t=molto dim.	!	!	!
4F#/]	2C#\	(8cc#\L 8aa	>	4cc#\	tak	.
.	.	8a\ 8ff#	.	.	.	.
4A/	.	8cc#\ 8aa	.	4cc#\	sło-	.
.	.	8a\J 8ff#	.	.	.	.
!	!	!	!	!LO:TX:a:i:t=poco a poco rit.	!	!LO:HP:a:t=molto dim.
2G#/	2D\	8b#X\L 8gg#	.	4b#X\	-necz-	>
.	.	8g#\ 8ff#	.	.	.	.
.	.	8b#\ 8gg#	.	4b#\	-nem	.
.	.	8g#\J) 8ff#	.	.	.	.
=31	=31	=31	=31	=31	=31	=31
2G#/ 2Bn	2.C#\	(8bn\L 8gg#	.	4cc#\	Ah!	.
.	.	8g#\ 8ff#	.	.	.	.
.	.	8b\ 8gg#	.	8cc#\	Jak	.
.	.	8g#\J 8ff#	.	8cc#\	mi	.
2G#/ 2B#	.	8b\L 8gg#	.	4cc#\	żal,	.
.	.	8g#\ 8ee#X	.	.	.	.
.	4C#\	8b\ 8dd#X	.	4cc#\	jak	.
.	.	8g#\J) 8ee#	.	.	.	.
=32	=32	=32	=32	=32	=32	=32
!	!	!	!	!LO:TX:b:t=a tempo	!	!
4r	(1FF#	(8a\L 8ff#	p	4.ff#\	żal!...	.
.	.	8b\ 8dd	.	.	.	.
(4C#/	.	8a\ 8cc#	.	.	.	.
.	.	8f#\J 8a	.	8r	.	.
4D/	.	8e#X/L 8b	.	2r	.	.
.	.	8d/ 8f#	.	.	.	.
4E#X/	.	8e#/ 8b	.	.	.	.
.	.	8d/J) 8f#	.	.	.	.
!!LO:LB:g=original	!	!	!	!	!	!
=33	=33	=33	=33	=33	=33	=33
4F#/)	4FF#\)	(>8c#/L 8a	.	1r	.	.
.	.	8B/ 8g#	.	.	.	.
4r	[2.FF#\	8c#/ 8a	.	.	.	.
.	.	8A/J 8f#	.	.	.	.
4r	.	8d/L 8g#	.	.	.	.
.	.	8B/ 8e#X	.	.	.	.
(4D/	.	8d/ 8g#	.	.	.	.
.	.	8B/J) 8e#	.	.	.	.
=34	=34	=34	=34	=34	=34	=34
4C#/)	4FF#\]	(>8A/L 8f#	.	1r	.	.
.	.	8c#/ 8e#X	.	.	.	.
4r	[2.FF#\	8A/ 8f#	.	.	.	.
.	.	8B/J 8d	.	.	.	.
!	!	!LO:TX:b:t=dim._:dur=12e:ext=ud:problem:text with extention lines	!	!	!	!
4r	.	8A#X/L 8en	>	.	.	.
.	.	8Gn/ 8c#	.	.	.	.
(4E/	.	8A#/ 8e	.	.	.	.
.	.	8G/J) 8c#	.	.	.	.
*	*	*clefF4	*	*	*	*
=35	=35	=35	=35	=35	=35	=35
!	!	!LO:TX:b:i:t=molto rit.	!	!	!	!
4D/)	4FF#\]	8F#\L 8d	.	1r	.	.
.	.	8E\ 8c#	.	.	.	.
4r	2FF#\	8F#\ 8d	.	.	.	.
.	.	8D\J 8B	.	.	.	.
2r	.	8E#X\L 8c#	.	.	.	.
.	.	8C#\ 8A	.	.	.	.
!	!LO:TX:b:t=Niew. Pag. 30	!	!	!	!	!
.	4FFF#\	8E#\ 8c#	.	.	.	.
.	.	8BB\J 8G#	]]	.	.	.
=36	=36	=36	=36	=36	=36	=36
[1CC# [1AA	2r	[1C# [1F# [1A [1c#	pp	1r	.	.
.	4r	.	.	.	.	.
.	(4CCC#\	.	.	.	.	.
*v	*v	*	*	*	*	*
=37	=37	=37	=37	=37	=37
1FFF#;) 1CC#] 1AA]	1C#;] 1F#] 1A] 1c#]	.	1r;	.	.
==	==	==	==	==	==
*-	*-	*-	*-	*-	*-
!!!system-decoration: s1{(s2,s3)}
!!!RDF**kern: > = above
!!!RDF**kern: < = below
!!!ENC: Andrzej Gręziak
!!!END: 2022-11-23
!!!ENC: Natalia Wrzos
!!!END: 2022-12-08
!!!YEC: Copyright 2022 Narodowy Instytut Fryderyka Chopina (https://polishscores.org)
!!!YEM: License CC-BY-4.0 (https://creativecommons.org/licenses/by/4.0)
